svg/u1f980.svg

<svg viewBox="0 0 128 128" xmlns="http://www.w3.org/2000/svg">
  <path d="M69.69,64.8c0,0-0.37-6.3-0.97-8.02c-1.55-4.4-1.42-11.99,5.02-11.54c6.45,0.45,4.95,7.72,3.67,11.62 c-1.27,3.9-0.67,8.09-0.67,8.09L69.69,64.8z" fill="#FF9003"/>
  <path d="M58.6,65.24c0.07-0.3-0.37-4.95,0.07-8.84s2.55-9.97-3.45-11.02s-8.52,7.02-6.05,12.64 s2.6,8.34,2.6,8.34L58.6,65.24z" fill="#FF9003"/>
  <path d="M42.56,26.72c4.8-3.4,15.09-7.09,16.09-5.2c1,1.9-8.59,8.69-8.59,8.69s2.7,5.1,2.7,6.5 s0.1,4.9-1.5,6.1s-13.19,8.49-13.19,8.49s-0.09,1.46-0.5,2.6c-0.8,2.22-2,2.9-2,2.9l-0.7,5.3l3.9,8.39l7.49,28.98l-4.4,2.8 c0,0-7.09-1.9-8.69-2c-1.6-0.1-4.5-0.4-5.2-0.1c-0.7,0.3-0.9-3.5-0.9-3.5s4.4-3.4,4.3-4.3s-2.9-0.97-4.4-1.12 c-1.5-0.15-5.32,0.45-5.7-0.15s-0.3-2.85,1.2-3.52s6.6-2.77,6.67-3.37s-5.12-1.67-8.47-2.72c-3.24-1.02-5-1.6-7.42-2.22 c-1.74-0.45-4.12-0.37-4.12-0.37l3.6-4.72l16.94,1.95c0,0-7.94-6.15-9.14-7.27s-2.32-2.32-2.32-2.32s1.42-0.97,2.7-0.67 s8.84,6.6,8.84,6.6s-0.15-2.4,0.45-3.45c0.6-1.05,1.27-1.27,1.27-1.27s1.12,0.9,1.5,0.37c0.37-0.52-1.65-2.7-2.4-4.65 c-0.75-1.95-0.75-3.22-0.75-3.22s-3.75-0.9-4.35-5.85s5.02-8.24,5.02-8.24L42.56,26.72z" fill="#FA1C1F"/>
  <path d="M69.84,21.75c-0.75,2.95,5.85,9.32,5.85,9.32l-0.15,2.4c0,0-2.25,5.85-0.6,7.94 c1.65,2.1,8.32,3.9,8.32,3.9l7.87,7.94c0,0,2.4,3.07,3.37,4.05c0.97,0.97-4.57,7.94-4.57,7.94l-2.85,22.48l2.4,12.22l11.79-1.12 c0,0-0.85-2.32-1.22-3.45c-0.37-1.12-4.27-4.57-4.27-4.57s1.72-1.87,4.72-2.02c3-0.15,6,1.12,5.62,0c-0.37-1.12-1.87-3.45-1.87-3.45 l-6.6-2.62c0,0,3.52-2.17,5.92-3.07s10.19-2.85,11.24-3.22c1.05-0.37,4.5,0.52,3.37-1.42c-1.12-1.95-7.12-1.95-7.12-1.95l-12.89,1.2 c0,0,2.62-2.77,5.47-4.8c2.85-2.02,7.49-5.32,7.49-5.32L107.32,63l-10.34,3.67c0,0-2.32,1.57-2.32,0.52c0-1.05,4.4-2.82,5.9-6.12 c1.07-2.36,0.17-3.4,0.17-3.4s2.25-1.12,2.4-4.65c0.15-3.52-2.62-7.27-2.62-7.27L78.39,23.13C78.39,23.13,70.4,19.58,69.84,21.75z" fill="#FA1C1F"/>
  <path d="M34.17,57.63c-2.59,1.16-1.72,4.4-1.2,5.82c0.52,1.42,2.1,4.35,2.1,4.35s-1.5,2.92-1.87,4.2 c-0.37,1.27-1.2,6.52,0.37,11.62c1.57,5.1,5.1,12.82,6,14.24s3.9,6.82,10.34,9.89s14.31,2.96,20.16,2.55 c7.49-0.52,14.54-5.1,15.81-6.97c1.27-1.87,4.05-3.3,5.62-8.92c1.57-5.62,3.15-14.09,2.7-20.01c-0.45-5.92-2.55-8.47-2.55-8.47 s2.7-1.27,4.27-3.37s2.3-4.55,0.12-5.37c-2.17-0.82-5.57,1.47-6.42,2.6c-1.3,1.72-2.02,3.52-2.02,3.52s-16.42-0.15-23.98,0.22 c-12.07,0.6-18.51,2.02-18.51,2.02l-5.17,0.22C39.94,65.77,39.72,55.15,34.17,57.63z" fill="#FF5F00"/>
  <path d="M8.19,71.04c-1.41-1.04,0.8-4.1,4.65-6.7c3.85-2.6,6.15-3.45,7.89-3.15c1.75,0.3,6.5,3.35,8.59,4.75 c1.79,1.2,3.7,2.2,3.75,2.5c0.05,0.3-0.93,0.09-2,1.85c-0.57,0.95-1.2,2.85-1.05,2.75c0.15-0.1-9.34-5.92-10.14-5.92 s-5,2.17-6.4,2.67C12.09,70.29,9.34,71.89,8.19,71.04z" fill="#FF5F00"/>
  <path d="M0.42,85.85c0.37,0.88,2.05,1.1,5.2-1.05s7.34-6.65,8.19-6.89s7.24,0.9,10.74,1.4 c3.5,0.5,5.55,1,5.55,1l-0.25-4.1c0,0-9.89-2.85-13.24-3.25c-3.35-0.4-3.7-1-5.55-0.2s-6.05,5.85-7.19,7.24S0.02,84.91,0.42,85.85z" fill="#FF5F00"/>
  <path d="M20.66,84.16c-2.2,0.45-8.79,5.85-9.99,7.89c-1.2,2.05-4,8.59-4.65,11.04c-0.65,2.45,0.8,2.5,2.3,1.9 s5.3-6.45,6-7.44c0.7-1,3.95-3.6,4.95-4.5c1-0.9,4-3.5,4.7-3.65c0.7-0.15,7.99,0.65,8.34,0.25c0.35-0.4-0.15-2.1-0.7-3.05 c-0.55-0.95-2.37-2.02-2.37-2.02S22.35,83.81,20.66,84.16z" fill="#FF5F00"/>
  <path d="M32.15,93.4c-2.35-0.6-7.14,1-8.49,1.8c-1.35,0.8-2.8,3-3.55,6.25s-1.7,8.69-0.95,9.09 c0.75,0.4,3.7-1,4.9-3.8c1.2-2.8,2.75-5.65,3.95-6.6c1.2-0.95,3.15-1.35,4.9-1.35c1.75,0,3.9,0,3.9,0s-1.6-2.9-1.95-3.7 C34.5,94.3,33.62,93.78,32.15,93.4z" fill="#FF5F00"/>
  <path d="M45.09,70.27c-1.65-2.05-4.55-0.3-6.4,2.25c-1.85,2.55-2.2,3.75-1.9,8.44c0.3,4.7,4.55,5.15,4.6,1.8 c0.05-3.35-0.55-4.35,0.55-5.95C43.04,75.21,46.8,72.39,45.09,70.27z" fill="#FF9003"/>
  <path d="M39.44,90c1.14,1.4,4.35,0.95,4.6-1.4c0.25-2.35-1.3-3-2.95-3C38.73,85.61,38.14,88.4,39.44,90z" fill="#FF9003"/>
  <path d="M95.55,67.44c0,0,0.65,0.57,1.15,1.62c0.56,1.18,0.67,1.75,0.85,2c0.22,0.31,8.24-6.35,10.54-6.75 c2.3-0.4,8.04,3.7,10.44,4.1c1.89,0.31,3.35-0.1,2.15-2.05c-1.2-1.95-8.14-7.69-11.14-7.44C106.06,59.21,96.1,67.04,95.55,67.44z" fill="#FF5F00"/>
  <path d="M98.17,74.24c0,0,13.65-5.22,16.81-4.57c3.65,0.75,6.92,5.72,8.14,6.99c1.37,1.42,5.8,6.1,3.35,6.99 c-4.11,1.51-11.59-7.84-12.84-8.44s-2-0.25-5.4,0.3S97.8,78.16,97.8,78.16c-0.02,0.01,0.19-1.5,0.22-2.12 C98.05,75.44,98.17,74.24,98.17,74.24z" fill="#FF5F00"/>
  <path d="M97.55,82.21c-0.33,0.33-0.56,2.46-0.65,2.95c-0.15,0.8-0.35,2.1-0.35,2.1s7.24,0.15,7.94,0.45 c0.7,0.3,2.95,2.62,4.8,4.25c1.42,1.24,5.65,5.35,5.65,5.35s3.2,6.35,5.15,6.4c1.95,0.05,1.95-2.65,1.05-5.1 c-0.9-2.45-2.2-6.6-2.7-7.09c-0.5-0.5-2.25-3-4.35-5.1c-1.03-1.03-4.8-4.3-5.8-4.45C107.29,81.81,98.25,81.51,97.55,82.21z" fill="#FF5F00"/>
  <path d="M95.75,90.58c0,0,6.94,1.07,9.49,3.32c1.55,1.37,3.37,5.27,3.7,8.49c0.1,1.01,0.75,7.14-0.95,7.39 s-4.02-3.22-4.67-5.02s-1.82-4.97-1.82-4.97s-3.23-1.93-3.4-2c-1.2-0.47-4.9-0.55-4.9-0.55s1.24-2.24,1.65-3.4 C95.35,92.43,95.75,90.58,95.75,90.58z" fill="#FF5F00"/>
  <path d="M34.85,26.4c-7.69,4.85-12.02,18.09-4.6,23.58c8.09,6,19.24-2.7,24.13-9.29s7.29-9.99,5.8-12.04 s-8.69,4.3-8.69,4.3s0.65,2.25,0.55,4.85c-0.1,2.6-0.3,5.05-1.45,5.05c-1.15,0-1.05-3.85-2.15-7.14s-2.25-3.7-2.2-5 c0.05-1.3,5.85-4.56,7.32-5.42c3.17-1.87,5.85-3.47,4.57-4.22C57.08,20.43,46.3,19.19,34.85,26.4z" fill="#FF5F00"/>
  <path d="M31.4,44.58c3.48-0.41,1.87-3.88,2.65-6.7c0.95-3.45,3.95-5.35,1.7-7.29 c-2.47-2.14-5.25,2.01-6.15,6.5C29.05,39.84,28.85,44.88,31.4,44.58z" fill="#FF9003"/>
  <path d="M79.81,32.74c0.05,0.95-2.45,1.85-3.15,5.2c-0.7,3.35-0.75,6.1,4.95,10.39s12.89,8.14,17.74,2.55 s2.6-16.84-6.5-24.08c-7.39-5.88-17.64-7.53-21.98-6c-2.55,0.9,2,3.55,4.65,6.15C78.63,30.01,79.76,31.79,79.81,32.74z" fill="#FF5F00"/>
  <path d="M68.87,29.22c-0.89,0.94-0.28,4.45,1.4,6.75c1.35,1.85,4.5,5.05,4.5,5.05s-0.6-4.15-0.2-5.05 s0.2-2.8,0.2-2.8s-1.6-1.45-2.5-2.2S69.72,28.32,68.87,29.22z" fill="#FF5F00"/>
  <path d="M79.61,36.54c-1.8,0.3-1.22,3.16,0,5.7c1.25,2.6,3.3,3.75,4.55,2.7s-0.15-3.35-0.9-4.7 C82.51,38.89,81.41,36.24,79.61,36.54z" fill="#FF9009"/>
  <ellipse cx="73.53" cy="52.44" fill="#322D2E" rx="4.32" ry="3.35" transform="matrix(0.2852 -0.9585 0.9585 0.2852 2.2977 107.9575)"/>
  <ellipse cx="53.79" cy="52.41" fill="#322D2E" rx="3.64" ry="4.32" transform="matrix(0.9948 -0.1018 0.1018 0.9948 -5.0547 5.7466)"/>
  <path d="M77.99,30.1c-0.7-1.1-2.91,0.69-3.85,2.95c-1.1,2.65-1.1,6.3,0.35,7.79s0.1-3.6,1.45-6.3 C77.06,32.3,78.69,31.19,77.99,30.1z" fill="#A62616"/>
  <path d="M47.94,28.85c-0.78,0.78,0.35,1.15,1,2.8c0.65,1.65,1.2,2.9,1.55,4.95c0.27,1.58,0.05,6.87,1.15,5.32 c1.1-1.55,1.32-8.07-0.15-10.57C50.18,29.15,48.83,27.95,47.94,28.85z" fill="#A62616"/>
  <path d="M82.16,63.62c0.27,1.09,4.2,0.65,6.75,2.05c2.55,1.4,4.5,4.9,4.35,12.09 C93.1,84.96,91,92.94,90.65,94.1c-0.85,2.85-3.9,7.84-4.45,8.54s-1.82,2.27,0.5,0.65c2.55-1.78,3.5-3.2,3.5-3.2s4.55,0.15,4.7-0.75 c0.15-0.9-3.7-1.35-3.7-1.35s0.8-1.55,1.45-3.55c0.65-2,1.15-3.85,1.15-3.85s1.15,0.02,3.67-0.25c2.77-0.3,6.77-0.4,7.27-1.2 c0.62-0.99-4.12-0.8-6.55-0.57c-1.98,0.18-4.05,0.07-4.05,0.07s0.35-1.97,0.55-3.22c0.2-1.25,0.32-2.8,0.32-2.8s4.92-1.15,6.47-1.65 c1.55-0.5,6.8-2.17,6.75-2.92c-0.04-0.55-4.05,0.15-6.87,0.85c-2.42,0.6-6.32,1.45-6.32,1.45s0.15-2.25,0.25-3.4 c0.1-1.15,0-2.45,0-2.45s1.8,0.2,2.87-0.27s2.7-2.24,3.97-3.12c1.4-0.97,5.27-3.7,5.02-4.35c-0.28-0.73-5.02,2.05-6.5,3.07 c-1.14,0.79-2.82,2.22-3.67,2.37c-0.85,0.15-1.8,0.25-1.8,0.25s-0.7-2.95-1.05-4.05c-0.35-1.1-1.55-3.4-3.5-4.6 S81.56,61.17,82.16,63.62z" fill="#A62616"/>
  <path d="M36.79,66.12c-3.1,1.05-5,4.25-5.25,6.35c-0.25,2.1-0.1,2.9-0.1,2.9s-3.4-2.4-4.7-3.5 c-0.9-0.76-6.97-5.7-7.67-4.55c-0.7,1.15,6.07,6.15,6.77,6.85c0.7,0.7,5.5,4.05,5.5,4.05l0.6,3.2c0,0-1.67,0.5-3.32,0.65 c-1.65,0.15-8.41-2.62-8.62-0.82c-0.05,0.42,7.9,2.81,8.49,2.92c1.27,0.25,4.4-0.15,4.4-0.15s1,3.22,1.2,3.82 c0.2,0.6,1.07,2.9,1.07,2.9s-2.82,0.07-3.67,0.02c-1.32-0.07-6.51-0.53-6.7,0.45c-0.12,0.65,5.5,1.05,7.29,1.35 c1.8,0.3,3.9,0.55,3.9,0.55s1.02,2.37,1.82,3.57c0.8,1.2,2.52,3.7,2.52,3.7s-7.11-1.23-6.85-0.02c0.15,0.67,8.44,2.85,8.44,2.85 s8.26,5.36,9.36,5.11c1.14-0.26-2.85-1.95-6.11-5.26c-2.13-2.17-5.42-6.5-7.52-11.59c-0.85-2.06-4.22-12.68-4.02-16.29 c0.2-3.65,1.65-5.65,3.85-6.65c2.2-1,9.84-2,8.29-3.2C44.24,64.12,38.78,65.45,36.79,66.12z" fill="#A32916"/>
</svg>

<svg viewBox="0 0 128 128" xmlns="http://www.w3.org/2000/svg">
  <defs/>
  <path d="M69.69,64.8 C69.69,64.8 69.32,58.5 68.72,56.78 C67.17,52.38 67.3,44.79 73.74,45.24 C80.19,45.69 78.69,52.96 77.41,56.86 C76.14,60.76 76.74,64.95 76.74,64.95 L69.69,64.8 Z" fill="#FF9003"/>
  <path d="M58.6,65.24 C58.67,64.94 58.23,60.29 58.67,56.4 C59.11,52.51 61.22,46.43 55.22,45.38 C49.22,44.33 46.7,52.4 49.17,58.02 C51.64,63.64 51.77,66.36 51.77,66.36 L58.6,65.24 Z" fill="#FF9003"/>
  <path d="M42.56,26.72 C47.36,23.32 57.65,19.63 58.65,21.52 C59.65,23.42 50.06,30.21 50.06,30.21 C50.06,30.21 52.76,35.31 52.76,36.71 C52.76,38.11 52.86,41.61 51.26,42.81 C49.66,44.01 38.07,51.3 38.07,51.3 C38.07,51.3 37.98,52.76 37.57,53.9 C36.77,56.12 35.57,56.8 35.57,56.8 L34.87,62.1 L38.77,70.49 L46.26,99.47 L41.86,102.27 C41.86,102.27 34.77,100.37 33.17,100.27 C31.57,100.17 28.67,99.87 27.97,100.17 C27.27,100.47 27.07,96.67 27.07,96.67 C27.07,96.67 31.47,93.27 31.37,92.37 C31.27,91.47 28.47,91.4 26.97,91.25 C25.47,91.1 21.65,91.7 21.27,91.1 C20.89,90.5 20.97,88.25 22.47,87.58 C23.97,86.91 29.07,84.81 29.14,84.21 C29.21,83.61 24.02,82.54 20.67,81.49 C17.43,80.47 15.67,79.89 13.25,79.27 C11.51,78.82 9.13,78.9 9.13,78.9 L12.73,74.18 L29.67,76.13 C29.67,76.13 21.73,69.98 20.53,68.86 C19.33,67.74 18.21,66.54 18.21,66.54 C18.21,66.54 19.63,65.57 20.91,65.87 C22.19,66.17 29.75,72.47 29.75,72.47 C29.75,72.47 29.6,70.07 30.2,69.02 C30.8,67.97 31.47,67.75 31.47,67.75 C31.47,67.75 32.59,68.65 32.97,68.12 C33.34,67.6 31.32,65.42 30.57,63.47 C29.82,61.52 29.82,60.25 29.82,60.25 C29.82,60.25 26.07,59.35 25.47,54.4 C24.87,49.45 30.49,46.16 30.49,46.16 L42.56,26.72 Z" fill="#FA1C1F"/>
  <path d="M69.84,21.75 C69.09,24.7 75.69,31.07 75.69,31.07 L75.54,33.47 C75.54,33.47 73.29,39.32 74.94,41.41 C76.59,43.51 83.26,45.31 83.26,45.31 L91.13,53.25 C91.13,53.25 93.53,56.32 94.5,57.3 C95.47,58.27 89.93,65.24 89.93,65.24 L87.08,87.72 L89.48,99.94 L101.27,98.82 C101.27,98.82 100.42,96.5 100.05,95.37 C99.68,94.25 95.78,90.8 95.78,90.8 C95.78,90.8 97.5,88.93 100.5,88.78 C103.5,88.63 106.5,89.9 106.12,88.78 C105.75,87.66 104.25,85.33 104.25,85.33 L97.65,82.71 C97.65,82.71 101.17,80.54 103.57,79.64 C105.97,78.74 113.76,76.79 114.81,76.42 C115.86,76.05 119.31,76.94 118.18,75 C117.06,73.05 111.06,73.05 111.06,73.05 L98.17,74.25 C98.17,74.25 100.79,71.48 103.64,69.45 C106.49,67.43 111.13,64.13 111.13,64.13 L107.32,63 L96.98,66.67 C96.98,66.67 94.66,68.24 94.66,67.19 C94.66,66.14 99.06,64.37 100.56,61.07 C101.63,58.71 100.73,57.67 100.73,57.67 C100.73,57.67 102.98,56.55 103.13,53.02 C103.28,49.5 100.51,45.75 100.51,45.75 L78.39,23.13 C78.39,23.13 70.4,19.58 69.84,21.75 Z" fill="#FA1C1F"/>
  <path d="M34.17,57.63 C31.58,58.79 32.45,62.03 32.97,63.45 C33.49,64.87 35.07,67.8 35.07,67.8 C35.07,67.8 33.57,70.72 33.2,72 C32.83,73.27 32,78.52 33.57,83.62 C35.14,88.72 38.67,96.44 39.57,97.86 C40.47,99.28 43.47,104.68 49.91,107.75 C56.35,110.82 64.22,110.71 70.07,110.3 C77.56,109.78 84.61,105.2 85.88,103.33 C87.15,101.46 89.93,100.03 91.5,94.41 C93.07,88.79 94.65,80.32 94.2,74.4 C93.75,68.48 91.65,65.93 91.65,65.93 C91.65,65.93 94.35,64.66 95.92,62.56 C97.49,60.46 98.22,58.01 96.04,57.19 C93.87,56.37 90.47,58.66 89.62,59.79 C88.32,61.51 87.6,63.31 87.6,63.31 C87.6,63.31 71.18,63.16 63.62,63.53 C51.55,64.13 45.11,65.55 45.11,65.55 L39.94,65.77 C39.94,65.77 39.72,55.15 34.17,57.63 Z" fill="#FF5F00"/>
  <path d="M8.19,71.04 C6.78,70 8.99,66.94 12.84,64.34 C16.69,61.74 18.99,60.89 20.73,61.19 C22.48,61.49 27.23,64.54 29.32,65.94 C31.11,67.14 33.02,68.14 33.07,68.44 C33.12,68.74 32.14,68.53 31.07,70.29 C30.5,71.24 29.87,73.14 30.02,73.04 C30.17,72.94 20.68,67.12 19.88,67.12 C19.08,67.12 14.88,69.29 13.48,69.79 C12.09,70.29 9.34,71.89 8.19,71.04 Z" fill="#FF5F00"/>
  <path d="M0.42,85.85 C0.79,86.73 2.47,86.95 5.62,84.8 C8.77,82.65 12.96,78.15 13.81,77.91 C14.66,77.67 21.05,78.81 24.55,79.31 C28.05,79.81 30.1,80.31 30.1,80.31 L29.85,76.21 C29.85,76.21 19.96,73.36 16.61,72.96 C13.26,72.56 12.91,71.96 11.06,72.76 C9.21,73.56 5.01,78.61 3.87,80 C2.73,81.39 0.02,84.91 0.42,85.85 Z" fill="#FF5F00"/>
  <path d="M20.66,84.16 C18.46,84.61 11.87,90.01 10.67,92.05 C9.47,94.1 6.67,100.64 6.02,103.09 C5.37,105.54 6.82,105.59 8.32,104.99 C9.82,104.39 13.62,98.54 14.32,97.55 C15.02,96.55 18.27,93.95 19.27,93.05 C20.27,92.15 23.27,89.55 23.97,89.4 C24.67,89.25 31.96,90.05 32.31,89.65 C32.66,89.25 32.16,87.55 31.61,86.6 C31.06,85.65 29.24,84.58 29.24,84.58 C29.24,84.58 22.35,83.81 20.66,84.16 Z" fill="#FF5F00"/>
  <path d="M32.15,93.4 C29.8,92.8 25.01,94.4 23.66,95.2 C22.31,96 20.86,98.2 20.11,101.45 C19.36,104.7 18.41,110.14 19.16,110.54 C19.91,110.94 22.86,109.54 24.06,106.74 C25.26,103.94 26.81,101.09 28.01,100.14 C29.21,99.19 31.16,98.79 32.91,98.79 C34.66,98.79 36.81,98.79 36.81,98.79 C36.81,98.79 35.21,95.89 34.86,95.09 C34.5,94.3 33.62,93.78 32.15,93.4 Z" fill="#FF5F00"/>
  <path d="M45.09,70.27 C43.44,68.22 40.54,69.97 38.69,72.52 C36.84,75.07 36.49,76.27 36.79,80.96 C37.09,85.66 41.34,86.11 41.39,82.76 C41.44,79.41 40.84,78.41 41.94,76.81 C43.04,75.21 46.8,72.39 45.09,70.27 Z" fill="#FF9003"/>
  <path d="M39.44,90 C40.58,91.4 43.79,90.95 44.04,88.6 C44.29,86.25 42.74,85.6 41.09,85.6 C38.73,85.61 38.14,88.4 39.44,90 Z" fill="#FF9003"/>
  <path d="M95.55,67.44 C95.55,67.44 96.2,68.01 96.7,69.06 C97.26,70.24 97.37,70.81 97.55,71.06 C97.77,71.37 105.79,64.71 108.09,64.31 C110.39,63.91 116.13,68.01 118.53,68.41 C120.42,68.72 121.88,68.31 120.68,66.36 C119.48,64.41 112.54,58.67 109.54,58.92 C106.06,59.21 96.1,67.04 95.55,67.44 Z" fill="#FF5F00"/>
  <path d="M98.17,74.24 C98.17,74.24 111.82,69.02 114.98,69.67 C118.63,70.42 121.9,75.39 123.12,76.66 C124.49,78.08 128.92,82.76 126.47,83.65 C122.36,85.16 114.88,75.81 113.63,75.21 C112.38,74.61 111.63,74.96 108.23,75.51 C104.83,76.06 97.8,78.16 97.8,78.16 C97.78,78.17 97.99,76.66 98.02,76.04 C98.05,75.44 98.17,74.24 98.17,74.24 Z" fill="#FF5F00"/>
  <path d="M97.55,82.21 C97.22,82.54 96.99,84.67 96.9,85.16 C96.75,85.96 96.55,87.26 96.55,87.26 C96.55,87.26 103.79,87.41 104.49,87.71 C105.19,88.01 107.44,90.33 109.29,91.96 C110.71,93.2 114.94,97.31 114.94,97.31 C114.94,97.31 118.14,103.66 120.09,103.71 C122.04,103.76 122.04,101.06 121.14,98.61 C120.24,96.16 118.94,92.01 118.44,91.52 C117.94,91.02 116.19,88.52 114.09,86.42 C113.06,85.39 109.29,82.12 108.29,81.97 C107.29,81.81 98.25,81.51 97.55,82.21 Z" fill="#FF5F00"/>
  <path d="M95.75,90.58 C95.75,90.58 102.69,91.65 105.24,93.9 C106.79,95.27 108.61,99.17 108.94,102.39 C109.04,103.4 109.69,109.53 107.99,109.78 C106.29,110.03 103.97,106.56 103.32,104.76 C102.67,102.96 101.5,99.79 101.5,99.79 C101.5,99.79 98.27,97.86 98.1,97.79 C96.9,97.32 93.2,97.24 93.2,97.24 C93.2,97.24 94.44,95 94.85,93.84 C95.35,92.43 95.75,90.58 95.75,90.58 Z" fill="#FF5F00"/>
  <path d="M34.85,26.4 C27.16,31.25 22.83,44.49 30.25,49.98 C38.34,55.98 49.49,47.28 54.38,40.69 C59.27,34.1 61.67,30.7 60.18,28.65 C58.69,26.6 51.49,32.95 51.49,32.95 C51.49,32.95 52.14,35.2 52.04,37.8 C51.94,40.4 51.74,42.85 50.59,42.85 C49.44,42.85 49.54,39 48.44,35.71 C47.34,32.42 46.19,32.01 46.24,30.71 C46.29,29.41 52.09,26.15 53.56,25.29 C56.73,23.42 59.41,21.82 58.13,21.07 C57.08,20.43 46.3,19.19 34.85,26.4 Z" fill="#FF5F00"/>
  <path d="M31.4,44.58 C34.88,44.17 33.27,40.7 34.05,37.88 C35,34.43 38,32.53 35.75,30.59 C33.28,28.45 30.5,32.6 29.6,37.09 C29.05,39.84 28.85,44.88 31.4,44.58 Z" fill="#FF9003"/>
  <path d="M79.81,32.74 C79.86,33.69 77.36,34.59 76.66,37.94 C75.96,41.29 75.91,44.04 81.61,48.33 C87.31,52.62 94.5,56.47 99.35,50.88 C104.2,45.29 101.95,34.04 92.85,26.8 C85.46,20.92 75.21,19.27 70.87,20.8 C68.32,21.7 72.87,24.35 75.52,26.95 C78.63,30.01 79.76,31.79 79.81,32.74 Z" fill="#FF5F00"/>
  <path d="M68.87,29.22 C67.98,30.16 68.59,33.67 70.27,35.97 C71.62,37.82 74.77,41.02 74.77,41.02 C74.77,41.02 74.17,36.87 74.57,35.97 C74.97,35.07 74.77,33.17 74.77,33.17 C74.77,33.17 73.17,31.72 72.27,30.97 C71.37,30.22 69.72,28.32 68.87,29.22 Z" fill="#FF5F00"/>
  <path d="M79.61,36.54 C77.81,36.84 78.39,39.7 79.61,42.24 C80.86,44.84 82.91,45.99 84.16,44.94 C85.41,43.89 84.01,41.59 83.26,40.24 C82.51,38.89 81.41,36.24 79.61,36.54 Z" fill="#FF9009"/>
  <path d="M74.764,48.294 C76.538,48.822 77.424,51.103 76.743,53.39 C76.063,55.677 74.074,57.103 72.3,56.576 C70.527,56.048 69.641,53.766 70.321,51.479 C71.002,49.193 72.991,47.766 74.764,48.294 Z" fill="#322D2E"/>
  <path d="M57.412,52.038 C57.655,54.411 56.231,56.501 54.231,56.706 C52.231,56.91 50.413,55.152 50.17,52.779 C49.927,50.405 51.351,48.315 53.351,48.111 C55.351,47.906 57.169,49.664 57.412,52.038 Z" fill="#322D2E"/>
  <path d="M77.99,30.1 C77.29,29 75.08,30.79 74.14,33.05 C73.04,35.7 73.04,39.35 74.49,40.84 C75.94,42.33 74.59,37.24 75.94,34.54 C77.06,32.3 78.69,31.19 77.99,30.1 Z" fill="#A62616"/>
  <path d="M47.94,28.85 C47.16,29.63 48.29,30 48.94,31.65 C49.59,33.3 50.14,34.55 50.49,36.6 C50.76,38.18 50.54,43.47 51.64,41.92 C52.74,40.37 52.96,33.85 51.49,31.35 C50.18,29.15 48.83,27.95 47.94,28.85 Z" fill="#A62616"/>
  <path d="M82.16,63.62 C82.43,64.71 86.36,64.27 88.91,65.67 C91.46,67.07 93.41,70.57 93.26,77.76 C93.1,84.96 91,92.94 90.65,94.1 C89.8,96.95 86.75,101.94 86.2,102.64 C85.65,103.34 84.38,104.91 86.7,103.29 C89.25,101.51 90.2,100.09 90.2,100.09 C90.2,100.09 94.75,100.24 94.9,99.34 C95.05,98.44 91.2,97.99 91.2,97.99 C91.2,97.99 92,96.44 92.65,94.44 C93.3,92.44 93.8,90.59 93.8,90.59 C93.8,90.59 94.95,90.61 97.47,90.34 C100.24,90.04 104.24,89.94 104.74,89.14 C105.36,88.15 100.62,88.34 98.19,88.57 C96.21,88.75 94.14,88.64 94.14,88.64 C94.14,88.64 94.49,86.67 94.69,85.42 C94.89,84.17 95.01,82.62 95.01,82.62 C95.01,82.62 99.93,81.47 101.48,80.97 C103.03,80.47 108.28,78.8 108.23,78.05 C108.19,77.5 104.18,78.2 101.36,78.9 C98.94,79.5 95.04,80.35 95.04,80.35 C95.04,80.35 95.19,78.1 95.29,76.95 C95.39,75.8 95.29,74.5 95.29,74.5 C95.29,74.5 97.09,74.7 98.16,74.23 C99.23,73.76 100.86,71.99 102.13,71.11 C103.53,70.14 107.4,67.41 107.15,66.76 C106.87,66.03 102.13,68.81 100.65,69.83 C99.51,70.62 97.83,72.05 96.98,72.2 C96.13,72.35 95.18,72.45 95.18,72.45 C95.18,72.45 94.48,69.5 94.13,68.4 C93.78,67.3 92.58,65 90.63,63.8 C88.68,62.6 81.56,61.17 82.16,63.62 Z" fill="#A62616"/>
  <path d="M36.79,66.12 C33.69,67.17 31.79,70.37 31.54,72.47 C31.29,74.57 31.44,75.37 31.44,75.37 C31.44,75.37 28.04,72.97 26.74,71.87 C25.84,71.11 19.77,66.17 19.07,67.32 C18.37,68.47 25.14,73.47 25.84,74.17 C26.54,74.87 31.34,78.22 31.34,78.22 L31.94,81.42 C31.94,81.42 30.27,81.92 28.62,82.07 C26.97,82.22 20.21,79.45 20,81.25 C19.95,81.67 27.9,84.06 28.49,84.17 C29.76,84.42 32.89,84.02 32.89,84.02 C32.89,84.02 33.89,87.24 34.09,87.84 C34.29,88.44 35.16,90.74 35.16,90.74 C35.16,90.74 32.34,90.81 31.49,90.76 C30.17,90.69 24.98,90.23 24.79,91.21 C24.67,91.86 30.29,92.26 32.08,92.56 C33.88,92.86 35.98,93.11 35.98,93.11 C35.98,93.11 37,95.48 37.8,96.68 C38.6,97.88 40.32,100.38 40.32,100.38 C40.32,100.38 33.21,99.15 33.47,100.36 C33.62,101.03 41.91,103.21 41.91,103.21 C41.91,103.21 50.17,108.57 51.27,108.32 C52.41,108.06 48.42,106.37 45.16,103.06 C43.03,100.89 39.74,96.56 37.64,91.47 C36.79,89.41 33.42,78.79 33.62,75.18 C33.82,71.53 35.27,69.53 37.47,68.53 C39.67,67.53 47.31,66.53 45.76,65.33 C44.24,64.12 38.78,65.45 36.79,66.12 Z" fill="#A32916"/>
</svg>
